icons/Trash_2.svg

<svg width="24" height="24" viewBox="0 0 24 24" fill="none" xmlns="http://www.w3.org/2000/svg">
<path fill-rule="evenodd" clip-rule="evenodd" d="M8.24991,4c0,-0.9665 0.7835,-1.75 1.75,-1.75h3.99999c0.9665,0 1.75,0.7835 1.75,1.75v2.25h3.25h1c0.4142,0 0.75,0.33579 0.75,0.75c0,0.41421 -0.3358,0.75 -0.75,0.75h-0.3017l-0.8175,11.4459c-0.1028,1.4391 -1.3003,2.5541 -2.743,2.5541h-8.27555c-1.44276,0 -2.64022,-1.115 -2.74301,-2.5541l-0.81757,-11.4459h-0.30166c-0.41422,0 -0.75,-0.33579 -0.75,-0.75c0,-0.41421 0.33578,-0.75 0.75,-0.75h1h3.25zM13.9999,3.75h-3.99999c-0.13807,0 -0.25,0.11193 -0.25,0.25v2.25h4.49999v-2.25c0,-0.13807 -0.1119,-0.25 -0.25,-0.25zM6.61532,19.0891c0.04673,0.6541 0.59103,1.1609 1.24683,1.1609h8.27555c0.6558,0 1.2001,-0.5068 1.2468,-1.1609l0.8099,-11.3391h-3.1945h-5.99999h-3.19452zM9.99995,10.25c0.41425,0 0.75005,0.3358 0.75005,0.75v6c0,0.4142 -0.3358,0.75 -0.75005,0.75c-0.41421,0 -0.75,-0.3358 -0.75,-0.75v-6c0,-0.4142 0.33579,-0.75 0.75,-0.75zM14,10.25c0.4142,0 0.75,0.3358 0.75,0.75v6c0,0.4142 -0.3358,0.75 -0.75,0.75c-0.4143,0 -0.75,-0.3358 -0.75,-0.75v-6c0,-0.4142 0.3357,-0.75 0.75,-0.75z" fill="#002B51"/>
</svg>

<svg width="24" height="24" viewBox="0 0 24 24" fill="none" xmlns="http://www.w3.org/2000/svg">
<path fill-rule="evenodd" clip-rule="evenodd" d="M8.24991 4C8.24991 3.0335 9.03341 2.25 9.99991 2.25H13.9999C14.9664 2.25 15.7499 3.0335 15.7499 4V6.25H18.9999H19.9999C20.4141 6.25 20.7499 6.58579 20.7499 7C20.7499 7.41421 20.4141 7.75 19.9999 7.75H19.6982L18.8807 19.1959C18.7779 20.635 17.5804 21.75 16.1377 21.75H7.86215C6.41939 21.75 5.22193 20.635 5.11914 19.1959L4.30157 7.75H3.99991C3.58569 7.75 3.24991 7.41421 3.24991 7C3.24991 6.58579 3.58569 6.25 3.99991 6.25H4.99991H8.24991V4ZM14.2499 4V6.25H9.74991V4C9.74991 3.86193 9.86184 3.75 9.99991 3.75H13.9999C14.138 3.75 14.2499 3.86193 14.2499 4ZM5.80539 7.75H8.99991H14.9999H18.1944L17.3845 19.0891C17.3378 19.7432 16.7935 20.25 16.1377 20.25H7.86215C7.20635 20.25 6.66205 19.7432 6.61532 19.0891L5.80539 7.75ZM9.99995 10.25C10.4142 10.25 10.75 10.5858 10.75 11V17C10.75 17.4142 10.4142 17.75 9.99995 17.75C9.58574 17.75 9.24995 17.4142 9.24995 17V11C9.24995 10.5858 9.58574 10.25 9.99995 10.25ZM14 10.25C14.4142 10.25 14.75 10.5858 14.75 11V17C14.75 17.4142 14.4142 17.75 14 17.75C13.5857 17.75 13.25 17.4142 13.25 17V11C13.25 10.5858 13.5857 10.25 14 10.25Z" fill="#002B51"/>
</svg>
